X: 13288
T: Fjellvåk
R: waltz
M: 3/4
K: Gmajor
"GMd'j7"B3d fg|"B#7"f4 d2|"GMd'j7"B2 d2 fg|"B#7"f4 f/g3/2|
"Am7"a3g ed|"d7"c4 A2|"G"B3d BG|"d7"A6|
"GMd'j7"B3 d fg|f4 d2|B2 d2 fg|f4 f/g3/2|
"Am7"e3d c2|"G"BA G2 "d7"F2|"G"G6||1 G6:|2 "G"G4 D2||
|:"em7"E4 F2|G4 A2|B3c BG|"Am7"A4 B2|
c6|"G"B3A G2|"d7"A4 d2|D4 D2|
"em7"E4 F2|G4 A2|B3c BG|"Am7"A4 B2|
ce "G"Bd "Am"Ac|"G"BA GF "d"EF||1 "G"G6-|G4 D2:|2 "G"G6-|G6||

